!!!COM: Grieg, Edvard
!!!CDT: 1843/06/15/-1907/09/04/
!!!OPR: Lyric Pieces
!!!OPS: Op. 43
!!!ONM: No. 4
!!!OTL@@NO: Liden Fugl
!!!OTL@EN: Little Bird
!!!OTL@DE: V&ouml;glein
!!!OTL@FR: Oisillon
!!!ODT: 1886///
!!!OMD: Allegro leggiero
**kern	**kern	**dynam
*staff2	*staff1	*staff1/2
*Ipiano	*Ipiano	*Ipiano
*>[A,A,B,B,C]	*>[A,A,B,B,C]	*>[A,A,B,B,C]
*>norep[A,B,C]	*>norep[A,B,C]	*>norep[A,B,C]
*>A	*>A	*>A
*clefG2	*clefG2	*clefG2
*k[b-]	*k[b-]	*k[b-]
*d:	*d:	*d:
*M6/8	*M6/8	*M6/8
*MM120	*MM120	*MM120
32dd\LLL	(32aa\LLL	p
32ff\	32bb-\	.
32dd\	32aa\	.
32ff\JJJ	32bb-\JJJ	.
=1	=1	=1
&(8dd'^/L&)	8aa'^\)	.
8r	8r	.
8d/ 8a/J	8r	.
4d'/ 4a'/	4r	.
32gg\LLL	(32ddd\LLL	.
32bbn\	32eee\	.
32gg\	32ddd\	.
32bb\JJJ	32eee\JJJ	.
=2	=2	=2
&(8gg'^\L&)	8ddd'^\)	.
8r	8r	.
8g\ 8dd\J	8r	.
4g'\ 4dd'\	4r	.
32dd\LLL	(32aa\LLL	.
32ff\	32bb-\	.
32dd\	32aa\	.
32ff\JJJ	32bb-\JJJ	.
=3	=3	=3
&(8dd'^\&)	8aa'^\)	.
8r	8r	.
32b-\LLL	(32ff\LLL	.
32dd\	32gg\	.
32b-\	32ff\	.
32dd\JJJ	32gg\JJJ	.
&(8b-'^\&)	8ff'^\)	.
8r	8r	.
32dd\LLL	(32aa\LLL	.
32ff\	32bb-\	.
32dd\	32aa\	.
32ff\JJJ	32bb-\JJJ	.
=4	=4	=4
&(8dd'^/L&)	8aa'^\)	.
8r	8r	.
8d/ 8a/J	8r	.
4d'/ 4a'/	4r	.
32ff\LLL	(32ccc\LLL	.
32aa\	32ddd\	.
32ff\	32ccc\	.
32aa\JJJ	32ddd\JJJ	.
=5	=5	=5
&(8ff'^\L&)	8ccc'^\)	.
8r	8r	.
8f\ 8cc\J	8r	.
4f'/ 4cc'/	4r	.
32aa\LLL	(32eee\LLL	.
32ccc\	32fff\	.
32aa\	32eee\	.
32ccc\JJJ	32fff\JJJ	.
=6	=6	=6
&(8aa'^\L&)	8eee'^\)	.
8r	8r	.
8e\ 8cc\J	8r	.
4e'/ 4cc'/	8.r	.
.	(16gg#\LK	.
8r	8ee'\J)	.
*clefF4	*	*
=7	=7	=7
4E'\ 4d'\	8g#\ 8cc\L	.
.	16r	.
.	(16gg#\k	.
8r	8ee'\J)	.
4E'\ 4d'\	8g#\ 8cc\L	.
.	16r	.
.	(16aa\k	.
8r	8ee'\J)	.
=8	=8	=8
4r	8a/L	.
.	8r	.
8AA/ 8E/	8c/ 8a/J	.
4AA'/ 4E'/	4c'/ 4a'/	.
=:|!|:	=:|!|:	=:|!|:
*>B	*>B	*>B
(32BB-/LLL	8r	.
32C/	.	.
32BB-/	.	.
32C/JJJ	.	.
*	*clefF4	*clefF4
=9	=9	=9
[4.BB-^/)	8.r	.
.	16E\ 16d\LK	pp
.	&(8e'\J&)	.
4BB-/]	4.E^\ 4.d^\ 4.e^\	.
(32BB-/LLL	.	.
32C/	.	.
32BB-/	.	.
32C/JJJ	.	.
=10	=10	=10
[4.BB-^/)	8.r	.
.	16E\ 16d\LK	.
.	&(8e'\J&)	.
4BB-/]	4.E^\ 4.d^\ 4.e^\	.
(32BB-/LLL	.	.
32C/	.	.
32BB-/	.	.
32C/JJJ	.	.
=11	=11	=11
8BB-/L)	4r	.
16r	.	.
(16BB-/k	.	.
8C'/J)	8E'\ 8d'\ 8e'\	.
8BB-/L	4r	.
16r	.	.
(16BB-/k	.	.
8C'/J)	8E'\ 8d'\ 8e'\	.
=12	=12	=12
[4.AA/	8.r	.
.	16E\ (16c#\LK	.
.	8e'\J)	.
8AA/L]	4.E^\ 4.c#^\ 4.e^\	.
8FF#'/	.	.
8GG#'/J	.	.
*	*clefG2	*clefG2
=13	=13	=13
8EE^\L	4r	.
8r	.	.
8c#^\ 8e^\J	(32a^/LLL	mp
.	32bn/	.
.	32a/	.
.	32b/JJJ	.
8B#'\ &(8d#'\L&)	8g#'/L)	.
8r	8r	.
8Bn^\ 8dn^\J	(32gn/LL	.
.	32a/	.
.	32g/	.
.	32a/JJJ	.
=14	=14	=14
8A#'\ &(8c#'\L&)	8f#'/L)	.
8r	8r	.
8An^\ 8cn^\J	(32fn/LL	.
.	32gn/	.
.	32f/	.
.	32g/JJJ	.
8G#'\ &(8Bn'\L&)	8e'/L)	.
8r	8r	.
8F#^\ [8A^\J	(32d/LL	.
.	32e/	.
.	32d/	.
.	32e/JJJ	.
=15	=15	=15
&(8Fn'\&) 8A'\L]	8c#'/L)	.
8r	8r	.
8E^\ [8A^\J	(32cn/LL	.
.	32e/	.
.	32c/	.
.	32e/JJJ	.
&(8D#'\&) 8A'\L]	8Bn'/L)	.
8r	8r	.
8Dn^\ [8E^\J	(32B-/LL	.
.	32e/	.
.	32B-/	.
.	32e/JJJ	.
=16	=16	=16
&(8C#'/&) 8E'/L]	8A'/)	.
16r	8r	.
16EE/k	.	.
&(8AA'/J&)	8r	.
8AAA'/	4r	.
8r	.	.
*clefG2	*	*
8d/ [8e/	(32b-^\LLL	<
.	32ee\	.
.	32b-\	.
.	32ee\JJJ	.
=17	=17	=17
&(8c#'/&) 8e'/]	8a'/)	.
16r	8r	.
*clefF4	*	*
16E\LK	.	.
&(8A'\J&)	8r	.
8AA'/	4r	.
8r	.	.
*clefG2	*	*
8dd\ [8ee\	(32bb-^\LLL	.
.	32eee\	.
.	32bb-\	.
.	32eee\JJJ	.
=18	=18	=18
&(8cc#'\&) 8ee'\]	8aa'\)	.
16r	8r	.
16e/LK	.	.
&(8a'/J&)	8r	.
8A'/	4r	.
8r	.	.
8ddd^\ [8eee^\	(32bb-^\LLL	f
.	32eee\	.
.	32bb-\	.
.	32eee\JJJ	.
=19	=19	=19
&(8ccc'\&) 8eee'\]	8aa'\)	.
8r	8r	.
8dd\ [8ee\L	(32bb-^\LLL	.
.	32eee\	.
.	32bb-\	.
.	32eee\JJJ	.
&(8cc#'\&) 8ee'\J]	8aa'\)	.
8r	8r	.
8d^/ [8e^/	(32b-^\LLL	.
.	32ee\	.
.	32b-\	.
.	32ee\JJJ	.
=20	=20	=20
&(8c#'/&) 8e'/]	8a'/)	.
8r	8r	.
*clefF4	*	*
8D\ [8E\L	(32B-^/LLL	.
.	32e/	.
.	32B-/	.
.	32e/JJJ	.
&(8C#\&) 8E\J]	8A'/)	.
8r	8r	.
*clefG2	*	*
32dd\LLL	(32aa\LLL	p
32ff\	32bb-\	.
32dd\	32aa\	.
32ff\JJJ	32bb-\JJJ	.
=21	=21	=21
&(8dd'^\&)	8aa'^\)	p
8r	8r	.
8r	(40bb-\LLL	.
.	40aa\	.
.	40ff\	.
.	40dd\	.
.	40a\JJJ)	.
8d'/	8r	.
8r	8r	.
32gg\LLL	(32ddd\LLL	.
32bbn\	32eee\	.
32gg\	32ddd\	.
32bb\JJJ	32eee\JJJ	.
=22	=22	=22
&(8gg'^\&)	8ddd'^\)	.
8r	8r	.
8r	(40eee\LLL	.
.	40ddd\	.
.	40bbn\	.
.	40gg\	.
.	40dd\JJJ)	.
8g'/	8r	.
8r	8r	.
32dd\LLL	(32aa\LLL	.
32ff\	32bb-\	.
32dd\	32aa\	.
32ff\JJJ	32bb-\JJJ	.
=23	=23	=23
&(8dd'^\&)	8aa'^\)	.
8r	8r	.
32b-\LLL	(32ff\LLL	.
32dd\	32gg\	.
32b-\	32ff\	.
32dd\JJJ	32gg\JJJ	.
&(8b-'^\&)	8ff'^\)	.
8r	8r	.
32dd\LLL	(32aa\LLL	.
32ff\	32bb-\	.
32dd\	32aa\	.
32ff\JJJ	32bb-\JJJ	.
=24	=24	=24
&(8dd'^\&)	8aa'^\)	.
8r	8r	.
8r	(40bb-\LLL	.
.	40aa\	.
.	40ff\	.
.	40dd\	.
.	40a\JJJ)	.
8d'/	8r	.
8r	8r	.
32dd-\LLL	(32aa\LLL	.
32ff\	32bb-\	.
32dd-\	32aa\	.
32ff\JJJ	32bb-\JJJ	.
=25	=25	=25
&(8dd-'^\&)	8aa'^\)	.
8r	8r	.
8r	(40bb-\LLL	.
.	40aa\	.
.	40ff\	.
.	40dd-\	.
.	40a\JJJ)	.
8d-'/	8r	.
8r	8r	.
32ff\LLL	(32ccc\LLL	.
32aa\	32dddn\	.
32ff\	32ccc\	.
32aa\JJJ	32ddd\JJJ	.
=26	=26	=26
&(8ff'^\&)	8ccc'^\)	.
8r	8r	.
8r	48ddd\LLL	.
.	48ccc\	.
.	48aa\	.
.	48ff\	.
.	48cc\	.
.	48a\JJJ	.
8c'/	8r	.
8r	16r	.
.	(16ccc#\LK	.
8r	8aa'\J)	.
*clefF4	*	*
=27	=27	=27
8A'\ 8g'\	8cc#\ 8ff\L	.
8r	16r	.
.	(16ccc#\k	.
8r	8aa'\J)	.
8A'\ 8g'\	8cc#'\ 8ff'\L	.
8r	16r	.
.	(16ddd\k	.
8r	8aa'\J)	.
=28	=28	=28
4r	8dd'\L	.
.	8r	.
8D\ 8A\	8f\ 8dd\J	.
4D'\ 4A'\	4f'/ 4dd'/	.
=:|!	=:|!	=:|!
*>C	*>C	*>C
(32EE-/LLL	8r	.
32FF/	.	.
32EE-/	.	.
32FF/JJJ	.	.
*	*clefF4	*clefF4
=29	=29	=29
[4.EE-^/)	8.r	.
.	16AA\ 16G\LK	pp
.	&(8A'\J&)	.
4EE-/]	4.AA^\ 4.G^\ 4.A^\	.
(32EE-/LLL	.	.
32FF/	.	.
32EE-/	.	.
32FF/JJJ	.	.
=30	=30	=30
[4.EE-^/)	8.r	.
.	16AA\ 16G\LK	.
.	&(8A'\J&)	.
4EE-/]	4.AA^\ 4.G^\ 4.A^\	.
(32EE-/LLL	.	.
32FF/	.	.
32EE-/	.	.
32FF/JJJ	.	.
=31	=31	=31
8EE-^/L)	4r	.
16r	.	.
(16EE-/k	.	.
8FF'/J)	8AA'\ 8G'\ 8A'\	.
8EE-/L	4r	.
16r	.	.
(16EE-/k	.	.
8FF'/J)	8AA'\ 8G'\ 8A'\	>
=32	=32	=32
8EE-/L	4r	.
16r	.	.
(16EE-/k	.	.
8FF'/J)	8AA'\ 8G'\ 8A'\	.
8EE-/L	4r	.
16r	.	.
(16EE-/k	.	.
8FF'/J)	8AA'\ 8G'\ 8A'\	.
=33	=33	=33
8DD/L	8.r	.
16r	.	.
(16AA/k	(16F#\LK	ppp
8D'/J)	8A'\J)	.
*	*clefG2	*clefG2
8F#'\L	8d'/L	.
16r	16r	.
(16A\k	(16f#/k	.
8d'\J)	8a'/J)	.
=34	=34	=34
8f#'\L	8dd'/L	.
16r	16r	.
(16A\k	(16f#/k	p
8d'\J)	8a'/J)	.
*clefG2	*	*
8f#'/L	8dd'\L	.
16r	16r	.
(16a/k	(16ff#\k	.
8dd'/J)	8aa'\J)	.
=35	=35	=35
8ff#'\	8ddd'\	.
8r	8r	.
8r	8r	.
*clefF4	*clefF4	*clefF4
8AAA'/ 8AA'/	8E'\ 8G'\ 8B-'\ 8d'\	.
8r	8r	.
8r	8r	.
=36	=36	=36
8DDD'/ 8DD'/	8F#'\ 8A'\ 8d'\	.
8r	8r	.
8r	8r	.
4r	4r	.
==	==	==
*-	*-	*-
!!!ENC: Craig Stuart Sapp
!!!END: 2008/02/27/
